X: 10401
M: C|
L: 1/8
K: F
.c.B |\
|: cf |\
afcf c'agf | gceg bgfe | fedc Bagf | e2c2 cdcB |\
|: cB |\
dfdf cfBf | dfdf cfBf | AfdB AcGc | A2F2F2 :|


